;FLAVOR:Marlin
;TIME:7187
;Filament used: 8.73874m
;Layer height: 0.3
;MINX:85.45
;MINY:100.701
;MINZ:0.3
;MAXX:164.55
;MAXY:154.299
;MAXZ:20.1
;Generated with Cura_SteamEngine main
M140 S60
M105
M190 S60
M104 S200
M105
M109 S200
M82 ;absolute extrusion mode
G21 ;metric values
G90 ;absolute positioning
M82 ;set extruder to absolute mode
M107 ;start with the fan off
G28 X0 Y0 ;move X/Y to min endstops
M300 S1318 P266
G28 Z0 ;move Z to min endstops
G0 Z0.2
G92 E0 ;zero the extruded length
G1 X40 E25 F400 ; Extrude 25mm of filament in a 4cm line. Reduce speed (F) if you have a nozzle smaller than 0.4mm!
G92 E0 ;zero the extruded length again
G1 E-1 F500 ; Retract a little
G1 X80 F4000 ; Quickly wipe away from the filament line
M117 ; Printing…
G5
G92 E0
G92 E0
G1 F2700 E-5
;LAYER_COUNT:67
;LAYER:0
M107
G0 F1600 X87.413 Y102.157 Z0.3
G0 X85.964 Y105.881
;TYPE:SKIRT
G1 F2700 E0
G1 F600 X85.973 Y105.227 E0.03263
G1 X86.047 Y104.505 E0.06884
G1 X86.23 Y103.845 E0.10301
G1 X86.54 Y103.189 E0.13921
G1 X86.922 Y102.646 E0.17233
G1 X87.413 Y102.157 E0.2069
G1 X87.924 Y101.795 E0.23815
G1 X88.604 Y101.481 E0.27551
G1 X89.204 Y101.293 E0.30688
G1 X90.014 Y101.215 E0.34748
G1 X159.351 Y101.213 E3.80672
G1 X160.2 Y101.228 E3.84908
G1 X160.703 Y101.277 E3.87429
G1 X161.425 Y101.479 E3.9117
G1 X162.026 Y101.768 E3.94497
G1 X162.441 Y102.057 E3.9702
G1 X162.909 Y102.492 E4.00208
G1 X163.244 Y102.87 E4.02728
G1 X163.517 Y103.296 E4.05252
G1 X163.772 Y103.874 E4.08404
G1 X163.929 Y104.354 E4.10923
G1 X164.016 Y105.036 E4.14353
G1 X164.037 Y106.079 E4.19558
G1 X164.037 Y149.137 E6.34375
G1 X164.027 Y149.859 E6.37978
G1 X163.926 Y150.658 E6.41996
G1 X163.728 Y151.265 E6.45181
G1 X163.404 Y151.878 E6.4864
G1 X163.117 Y152.294 E6.51161
G1 X162.513 Y152.888 E6.55388
G1 X161.923 Y153.283 E6.5893
G1 X161.464 Y153.495 E6.61453
G1 X160.759 Y153.687 E6.65098
G1 X160.076 Y153.775 E6.68534
G1 X159.49 Y153.787 E6.71458
G1 X90.657 Y153.787 E10.14867
G1 X89.938 Y153.776 E10.18455
G1 X89.27 Y153.702 E10.21808
G1 X88.778 Y153.583 E10.24333
G1 X88.102 Y153.295 E10.27999
G1 X87.511 Y152.916 E10.31502
G1 X86.918 Y152.353 E10.35581
G1 X86.546 Y151.828 E10.38791
G1 X86.267 Y151.264 E10.4193
G1 X86.041 Y150.539 E10.45719
G1 X85.965 Y149.729 E10.49778
G1 X85.964 Y105.881 E12.68537
G1 F2700 E7.68537
;MESH:body1066
G0 F1600 X88.498 Y105.883
G0 X89.583 Y105.883
G0 X109.129 Y127.472
;TYPE:WALL-INNER
G1 F2700 E12.68537
G1 F600 X109.255 Y126.344 E12.74199
G1 X109.536 Y125.495 E12.78661
G1 X109.949 Y124.68 E12.83219
G1 X110.389 Y124.073 E12.86959
G1 X110.781 Y123.647 E12.89848
G1 X111.658 Y122.939 E12.95471
G1 X112.492 Y122.54 E13.00083
G1 X113.284 Y122.285 E13.04234
G1 X114.037 Y122.169 E13.08035
G1 X115.036 Y122.177 E13.1302
G1 X115.87 Y122.326 E13.17246
G1 X116.507 Y122.54 E13.20599
G1 X117.321 Y122.95 E13.25146
G1 X117.926 Y123.388 E13.28872
G1 X118.352 Y123.78 E13.31761
G1 X119.044 Y124.633 E13.37241
G1 X119.552 Y125.682 E13.43055
G1 X119.788 Y126.675 E13.48147
G1 X119.871 Y127.527 E13.52418
G1 X119.745 Y128.662 E13.58116
G1 X119.463 Y129.506 E13.62555
G1 X119.049 Y130.322 E13.6712
G1 X118.61 Y130.931 E13.70866
G1 X118.216 Y131.352 E13.73742
G1 X117.367 Y132.045 E13.7921
G1 X116.339 Y132.544 E13.84911
G1 X115.359 Y132.783 E13.89943
G1 X114.46 Y132.872 E13.9445
G1 X113.341 Y132.744 E14.0007
G1 X112.494 Y132.46 E14.04526
G1 X111.679 Y132.05 E14.09078
G1 X111.074 Y131.612 E14.12804
G1 X110.695 Y131.263 E14.15375
G1 X110.644 Y131.212 E14.15735
G1 X109.941 Y130.343 E14.21311
G1 X109.453 Y129.327 E14.26934
G1 X109.217 Y128.36 E14.319
G1 X109.129 Y127.472 E14.36352
G0 F1600 X90.164 Y149.586
G1 F600 X159.837 Y149.587 E17.83952
G1 X159.837 Y105.413 E20.04337
G1 X90.165 Y105.414 E23.51932
G1 X90.164 Y149.586 E25.72307
G0 F1600 X140.13 Y127.463
G1 F600 X140.255 Y126.337 E25.77959
G1 X140.534 Y125.508 E25.82323
G1 X140.95 Y124.679 E25.86951
G1 X141.39 Y124.069 E25.90703
G1 X141.784 Y123.648 E25.9358
G1 X142.616 Y122.973 E25.98925
G1 X142.682 Y122.932 E25.99313
G1 X143.492 Y122.54 E26.03802
G1 X144.284 Y122.285 E26.07953
G1 X145.037 Y122.169 E26.11754
G1 X146.036 Y122.177 E26.16738
G1 X146.87 Y122.326 E26.20965
G1 X147.504 Y122.539 E26.24302
G1 X148.319 Y122.952 E26.2886
G1 X148.876 Y123.35 E26.32276
G1 X149.352 Y123.781 E26.35479
G1 X150.051 Y124.642 E26.41012
G1 X150.537 Y125.646 E26.46577
G1 X150.786 Y126.642 E26.51699
G1 X150.87 Y127.564 E26.56318
G1 X150.745 Y128.663 E26.61836
G1 X150.463 Y129.506 E26.66271
G1 X150.052 Y130.318 E26.70812
G1 X149.611 Y130.93 E26.74575
G1 X149.214 Y131.357 E26.77484
G1 X148.354 Y132.054 E26.83006
G1 X147.325 Y132.55 E26.88705
G1 X146.359 Y132.783 E26.93663
G1 X145.46 Y132.872 E26.9817
G1 X144.341 Y132.744 E27.03789
G1 X143.494 Y132.46 E27.08246
G1 X142.679 Y132.05 E27.12798
G1 X142.074 Y131.612 E27.16524
G1 X141.644 Y131.212 E27.19454
G1 X140.957 Y130.368 E27.24883
G1 X140.448 Y129.318 E27.30705
G1 X140.212 Y128.325 E27.35797
G1 X140.13 Y127.463 E27.40117
G0 F1600 X140.531 Y127.468
G1 F600 X140.645 Y126.431 E27.45322
G1 X140.906 Y125.657 E27.49397
G1 X141.29 Y124.895 E27.53654
G1 X141.697 Y124.329 E27.57132
G1 X142.09 Y123.912 E27.59991
G1 X142.883 Y123.277 E27.65059
G1 X143.64 Y122.912 E27.69252
G1 X144.372 Y122.679 E27.73084
G1 X145.067 Y122.568 E27.76596
G1 X145.999 Y122.575 E27.81246
G1 X146.77 Y122.713 E27.85153
G1 X147.355 Y122.909 E27.88231
G1 X148.112 Y123.294 E27.92468
G1 X148.642 Y123.675 E27.95725
G1 X149.063 Y124.059 E27.98568
G1 X149.711 Y124.863 E28.0372
G1 X150.167 Y125.808 E28.08954
G1 X150.39 Y126.711 E28.13595
G1 X150.467 Y127.532 E28.17709
G1 X150.354 Y128.569 E28.22913
G1 X150.091 Y129.354 E28.27043
G1 X149.709 Y130.11 E28.31269
G1 X149.278 Y130.7 E28.34914
G1 X148.91 Y131.088 E28.37582
G1 X148.137 Y131.716 E28.42551
G1 X147.18 Y132.171 E28.47838
G1 X146.293 Y132.388 E28.52394
G1 X145.461 Y132.47 E28.56565
G1 X144.422 Y132.352 E28.61781
G1 X143.648 Y132.093 E28.65853
G1 X142.887 Y131.705 E28.70115
G1 X142.328 Y131.302 E28.73553
G1 X141.909 Y130.907 E28.76426
G1 X141.291 Y130.145 E28.81321
G1 X140.828 Y129.188 E28.86625
G1 X140.614 Y128.304 E28.91162
G1 X140.531 Y127.468 E28.95354
G0 F1600 X140.233 Y127.496
G0 X115.023 Y122.335
G0 X114.048 Y122.328
G0 X112.551 Y122.688
G0 X111.735 Y123.081
G0 X110.896 Y123.763
G0 X110.087 Y124.764
G0 X109.687 Y125.555
G0 X109.233 Y127.5
G0 X109.531 Y127.472
G1 F600 X109.644 Y126.453 E29.00469
G1 X109.909 Y125.649 E29.04692
G1 X110.293 Y124.89 E29.08936
G1 X110.698 Y124.327 E29.12396
G1 X111.09 Y123.912 E29.15244
G1 X111.883 Y123.277 E29.20312
G1 X112.64 Y122.912 E29.24505
G1 X113.372 Y122.679 E29.28338
G1 X114.067 Y122.568 E29.31849
G1 X114.999 Y122.575 E29.36499
G1 X115.77 Y122.713 E29.40406
G1 X116.352 Y122.909 E29.4347
G1 X117.113 Y123.295 E29.47727
G1 X117.672 Y123.698 E29.51165
G1 X118.061 Y124.059 E29.53813
G1 X118.709 Y124.854 E29.5893
G1 X119.173 Y125.815 E29.64254
G1 X119.386 Y126.696 E29.68776
G1 X119.469 Y127.532 E29.72967
G1 X119.355 Y128.569 E29.78172
G1 X119.094 Y129.343 E29.82247
G1 X118.71 Y130.105 E29.86504
G1 X118.303 Y130.671 E29.89982
G1 X117.91 Y131.088 E29.92841
G1 X117.117 Y131.723 E29.9791
G1 X116.211 Y132.16 E30.02928
G1 X115.293 Y132.388 E30.07647
G1 X114.461 Y132.47 E30.11818
G1 X113.422 Y132.352 E30.17035
G1 X112.648 Y132.093 E30.21107
G1 X111.887 Y131.705 E30.25369
G1 X111.328 Y131.302 E30.28807
G1 X110.967 Y130.969 E30.31257
G1 X110.909 Y130.907 E30.3168
G1 X110.277 Y130.116 E30.36732
G1 X109.826 Y129.172 E30.41951
G1 X109.612 Y128.293 E30.46465
G1 X109.531 Y127.472 E30.50581
G0 F1600 X109.233 Y127.5
G0 X90.057 Y105.291
G0 X89.832 Y105.087
G1 F600 X89.764 Y105.294 E30.51668
G1 X89.764 Y149.777 E32.73594
G1 X89.824 Y149.903 E32.7429
G1 X89.978 Y149.987 E32.75166
G1 X159.933 Y149.987 E36.24172
G1 X160.1 Y149.949 E36.25027
G1 X160.189 Y149.882 E36.25583
G1 X160.237 Y149.743 E36.26316
G1 X160.237 Y105.272 E38.48183
G1 X160.203 Y105.145 E38.48839
G1 X160.106 Y105.048 E38.49523
G1 X159.958 Y105.013 E38.50282
G1 X89.972 Y105.013 E41.99444
G1 X89.832 Y105.087 E42.00234
G0 F1600 X89.364 Y105.253
;TYPE:WALL-OUTER
G1 F600 X89.364 Y149.852 E44.22739
G1 X89.462 Y150.092 E44.24032
G1 X89.564 Y150.217 E44.24837
G1 X89.81 Y150.352 E44.26237
G1 X90.018 Y150.387 E44.2729
G1 X159.977 Y150.387 E47.76316
G1 X160.272 Y150.321 E47.77825
G1 X160.492 Y150.154 E47.79203
G1 X160.584 Y150.002 E47.80089
G1 X160.637 Y149.793 E47.81165
G1 X160.637 Y105.272 E50.03281
G1 X160.637 Y105.153 E50.03875
G1 X160.545 Y104.921 E50.0512
G1 X160.33 Y104.706 E50.06637
G1 X159.986 Y104.613 E50.08414
G1 X89.9 Y104.613 E53.58075
G1 X89.66 Y104.711 E53.59368
G1 X89.527 Y104.819 E53.60223
G1 X89.418 Y104.995 E53.61256
G1 X89.364 Y105.253 E53.62571
G0 F1600 X89.364 Y105.453
G0 X90.063 Y105.454
G0 X109.239 Y127.554
G0 X109.934 Y127.488
G1 F600 X110.038 Y126.525 E53.67403
G1 X110.278 Y125.803 E53.71199
G1 X110.635 Y125.098 E53.75142
G1 X111.007 Y124.581 E53.78319
G1 X111.342 Y124.222 E53.80769
G1 X112.059 Y123.64 E53.85376
G1 X112.788 Y123.284 E53.89424
G1 X113.48 Y123.065 E53.93045
G1 X114.097 Y122.967 E53.96162
G1 X114.962 Y122.973 E54.00477
G1 X115.67 Y123.101 E54.04067
G1 X116.197 Y123.278 E54.0684
G1 X116.905 Y123.637 E54.10801
G1 X117.428 Y124.015 E54.1402
G1 X117.769 Y124.332 E54.16343
G1 X118.369 Y125.071 E54.21092
G1 X118.787 Y125.935 E54.25881
G1 X118.996 Y126.788 E54.30262
G1 X119.066 Y127.512 E54.33891
G1 X118.961 Y128.482 E54.38759
G1 X118.716 Y129.21 E54.42591
G1 X118.366 Y129.9 E54.46451
G1 X117.985 Y130.428 E54.49699
G1 X117.658 Y130.778 E54.52089
G1 X116.941 Y131.36 E54.56696
G1 X116.063 Y131.788 E54.61569
G1 X115.226 Y131.994 E54.6587
G1 X114.486 Y132.066 E54.69579
G1 X113.523 Y131.961 E54.74412
G1 X112.803 Y131.722 E54.78197
G1 X112.095 Y131.363 E54.82157
G1 X111.572 Y130.985 E54.85376
G1 X111.239 Y130.676 E54.87643
G1 X110.631 Y129.927 E54.92456
G1 X110.212 Y129.063 E54.97246
G1 X110.006 Y128.226 E55.01547
G1 X109.934 Y127.488 E55.05246
G0 F1600 X109.955 Y127.29
G0 X109.258 Y127.212
G0 X109.411 Y126.378
G0 X109.687 Y125.555
G0 X110.087 Y124.764
G0 X110.896 Y123.763
G0 X111.735 Y123.081
G0 X112.551 Y122.688
G0 X113.319 Y122.444
G0 X115.023 Y122.335
G0 X140.239 Y127.554
G0 X140.934 Y127.488
G1 F600 X141.039 Y126.518 E55.10114
G1 X141.284 Y125.79 E55.13946
G1 X141.634 Y125.1 E55.17806
G1 X142.015 Y124.572 E55.21054
G1 X142.342 Y124.222 E55.23444
G1 X143.085 Y123.623 E55.28205
G1 X143.788 Y123.284 E55.32099
G1 X144.48 Y123.065 E55.3572
G1 X145.097 Y122.967 E55.38837
G1 X145.962 Y122.973 E55.43153
G1 X146.67 Y123.101 E55.46742
G1 X147.196 Y123.278 E55.49511
G1 X147.904 Y123.636 E55.53469
G1 X148.408 Y123.999 E55.56568
G1 X148.778 Y124.342 E55.59085
G1 X149.36 Y125.059 E55.63692
G1 X149.791 Y125.944 E55.68603
G1 X149.996 Y126.788 E55.72937
G1 X150.067 Y127.532 E55.76665
G1 X149.963 Y128.473 E55.81388
G1 X149.716 Y129.21 E55.85266
G1 X149.373 Y129.888 E55.89057
G1 X148.985 Y130.428 E55.92375
G1 X148.658 Y130.778 E55.94764
G1 X147.941 Y131.36 E55.99372
G1 X147.068 Y131.786 E56.04218
G1 X146.226 Y131.994 E56.08545
G1 X145.486 Y132.066 E56.12254
G1 X144.523 Y131.961 E56.17087
G1 X143.803 Y131.722 E56.20872
G1 X143.095 Y131.363 E56.24832
G1 X142.572 Y130.985 E56.28052
G1 X142.229 Y130.666 E56.30389
G1 X141.631 Y129.928 E56.35127
G1 X141.213 Y129.065 E56.39911
G1 X141.004 Y128.212 E56.44293
G1 X140.934 Y127.488 E56.47922
G0 F1600 X140.955 Y127.29
G0 X140.258 Y127.212
G0 X139.748 Y127.477
;TYPE:SKIN
G1 F600 X139.876 Y126.295 E56.53853
G1 X140.187 Y125.354 E56.58798
G1 X140.622 Y124.483 E56.63655
G1 X141.054 Y123.884 E56.6734
G1 X141.514 Y123.374 E56.70766
G1 X142.425 Y122.637 E56.76612
G1 X143.362 Y122.184 E56.81804
G1 X144.177 Y121.922 E56.86075
G1 X145.009 Y121.79 E56.90278
G1 X146.074 Y121.793 E56.95592
G1 X146.94 Y121.952 E56.99984
G1 X147.66 Y122.189 E57.03766
G1 X148.533 Y122.632 E57.0865
G1 X149.16 Y123.087 E57.12515
G1 X149.636 Y123.527 E57.15749
G1 X150.386 Y124.458 E57.21713
G1 X150.902 Y125.525 E57.27627
G1 X151.163 Y126.591 E57.33102
G1 X151.251 Y127.564 E57.37976
G1 X151.12 Y128.731 E57.43835
G1 X150.804 Y129.677 E57.48811
G1 X150.385 Y130.502 E57.53427
G1 X149.96 Y131.097 E57.57075
G1 X149.469 Y131.64 E57.60727
G1 X148.55 Y132.382 E57.6662
G1 X147.478 Y132.898 E57.72556
G1 X146.431 Y133.157 E57.77937
G1 X145.476 Y133.253 E57.82725
G1 X144.247 Y133.115 E57.88895
G1 X143.338 Y132.81 E57.93679
G1 X142.479 Y132.375 E57.98483
G1 X141.902 Y131.96 E58.02028
G1 X141.367 Y131.48 E58.05614
G1 X140.618 Y130.547 E58.11583
G1 X140.101 Y129.475 E58.17521
G1 X139.84 Y128.419 E58.22948
G1 X139.748 Y127.477 E58.2767
G0 F1600 X115.023 Y122.335
G0 X114.048 Y122.328
G0 X112.551 Y122.688
G0 X111.735 Y123.081
G0 X110.896 Y123.763
G0 X110.168 Y124.663
G0 X108.749 Y127.465
G1 F600 X108.882 Y126.262 E58.33708
G1 X109.188 Y125.349 E58.38512
G1 X109.63 Y124.469 E58.43426
G1 X110.049 Y123.89 E58.46991
G1 X110.514 Y123.375 E58.50453
G1 X111.424 Y122.637 E58.56298
G1 X112.362 Y122.184 E58.61495
G1 X113.177 Y121.922 E58.65766
G1 X114.009 Y121.79 E58.69969
G1 X115.074 Y121.793 E58.75282
G1 X115.967 Y121.959 E58.79814
G1 X116.656 Y122.191 E58.83441
G1 X117.5 Y122.614 E58.88151
G1 X118.097 Y123.039 E58.91807
G1 X118.627 Y123.514 E58.95358
G1 X119.364 Y124.424 E59.012
G1 X119.919 Y125.577 E59.07584
G1 X120.16 Y126.58 E59.1273
G1 X120.252 Y127.523 E59.17457
G1 X120.124 Y128.707 E59.23399
G1 X119.813 Y129.647 E59.28338
G1 X119.369 Y130.533 E59.33283
G1 X118.96 Y131.1 E59.36771
G1 X118.486 Y131.626 E59.40303
G1 X117.576 Y132.363 E59.46145
G1 X116.467 Y132.904 E59.52301
G1 X115.431 Y133.157 E59.57622
G1 X114.476 Y133.253 E59.6241
G1 X113.247 Y133.115 E59.6858
G1 X112.338 Y132.81 E59.73364
G1 X111.479 Y132.375 E59.78168
G1 X110.902 Y131.96 E59.81714
G1 X110.368 Y131.481 E59.85292
G1 X109.642 Y130.58 E59.91065
G1 X109.099 Y129.473 E59.97217
G1 X108.839 Y128.418 E60.02638
G1 X108.749 Y127.465 E60.07413
G0 F1600 X90.544 Y149.206
G1 F600 X159.457 Y149.207 E63.51222
G1 X159.457 Y105.793 E65.67815
G1 X133.667 Y105.793 E66.96482
G1 X90.546 Y105.795 E69.11613
G1 X90.544 Y149.206 E71.28192
G0 F1600 X91.305 Y149.005
G1 F600 X90.743 Y148.443 E71.32157
G0 F1600 X90.743 Y147.877
G1 F600 X91.87 Y149.005 E71.40112
G0 F1600 X92.436 Y149.005
G1 F600 X90.743 Y147.312 E71.52057
G0 F1600 X90.743 Y146.746
G1 F600 X93.002 Y149.005 E71.67996
G0 F1600 X93.567 Y149.005
G1 F600 X90.743 Y146.18 E71.87924
G0 F1600 X90.743 Y145.615
G1 F600 X94.133 Y149.005 E72.11842
G0 F1600 X94.699 Y149.005
G1 F600 X90.743 Y145.049 E72.39754
G0 F1600 X90.743 Y144.483
G1 F600 X95.264 Y149.005 E72.71656
G0 F1600 X95.83 Y149.005
G1 F600 X90.743 Y143.918 E73.07547
G0 F1600 X90.743 Y143.352
G1 F600 X96.396 Y149.005 E73.47432
G0 F1600 X96.962 Y149.005
G1 F600 X90.743 Y142.786 E73.9131
G0 F1600 X90.743 Y142.221
G1 F600 X97.527 Y149.005 E74.39175
G0 F1600 X98.093 Y149.005
G1 F600 X90.743 Y141.655 E74.91033
G0 F1600 X90.743 Y141.089
G1 F600 X98.659 Y149.005 E75.46885
G0 F1600 X99.224 Y149.005
G1 F600 X90.743 Y140.524 E76.06723
G0 F1600 X90.743 Y139.958
G1 F600 X99.79 Y149.005 E76.70555
G0 F1600 X100.356 Y149.005
G1 F600 X90.743 Y139.392 E77.38379
G0 F1600 X90.743 Y138.826
G1 F600 X100.921 Y149.005 E78.10194
G0 F1600 X101.487 Y149.005
G1 F600 X90.743 Y138.261 E78.85999
G0 F1600 X90.743 Y137.695
G1 F600 X102.053 Y149.005 E79.65797
G0 F1600 X102.618 Y149.005
G1 F600 X90.743 Y137.129 E80.49585
G0 F1600 X90.743 Y136.564
G1 F600 X103.184 Y149.005 E81.37363
G0 F1600 X103.75 Y149.005
G1 F600 X90.743 Y135.998 E82.29135
G0 F1600 X90.743 Y135.432
G1 F600 X104.315 Y149.005 E83.24896
G0 F1600 X104.881 Y149.005
G1 F600 X90.743 Y134.867 E84.24647
G0 F1600 X90.744 Y134.302
G1 F600 X105.447 Y149.005 E85.28385
G0 F1600 X106.012 Y149.005
G1 F600 X90.744 Y133.736 E86.36112
G0 F1600 X90.744 Y133.17
G1 F600 X106.578 Y149.005 E87.47833
G0 F1600 X107.144 Y149.005
G1 F600 X90.744 Y132.605 E88.63544
G0 F1600 X90.744 Y132.039
G1 F600 X107.71 Y149.005 E89.83248
G0 F1600 X108.275 Y149.005
G1 F600 X90.744 Y131.473 E91.06943
G0 F1600 X90.744 Y130.908
G1 F600 X108.841 Y149.005 E92.34627
G0 F1600 X109.407 Y149.005
G1 F600 X90.744 Y130.342 E93.66304
G0 F1600 X90.744 Y129.776
