;FLAVOR:Marlin
;TIME:3179
;Filament used: 2.23435m
;Layer height: 0.2
;MINX:102.249
;MINY:104.749
;MINZ:0.3
;MAXX:147.751
;MAXY:150.251
;MAXZ:8.5
;Generated with Cura_SteamEngine main
M140 S60
M105
M190 S60
M104 S200
M105
M109 S200
M82 ;absolute extrusion mode
G21 ;metric values
G90 ;absolute positioning
M82 ;set extruder to absolute mode
M107 ;start with the fan off
G28 X0 Y0 ;move X/Y to min endstops
M300 S1318 P266
G28 Z0 ;move Z to min endstops
G0 Z0.2
G92 E0 ;zero the extruded length
G1 X40 E25 F400 ; Extrude 25mm of filament in a 4cm line. Reduce speed (F) if you have a nozzle smaller than 0.4mm!
G92 E0 ;zero the extruded length again
G1 E-1 F500 ; Retract a little
G1 X80 F4000 ; Quickly wipe away from the filament line
M117 ; Printing…
G5
G92 E0
G92 E0
G1 F2700 E-5
;LAYER_COUNT:42
;LAYER:0
M107
G0 F1600 X103.246 Y105.88 Z0.3
G0 X102.249 Y108.974
;TYPE:SKIRT
G1 F2700 E0
G1 F600 X102.258 Y108.309 E0.03318
G1 X102.306 Y107.775 E0.05993
G1 X102.432 Y107.254 E0.08667
G1 X102.634 Y106.757 E0.11344
G1 X102.907 Y106.296 E0.14017
G1 X103.246 Y105.88 E0.16694
G1 X103.643 Y105.52 E0.19368
G1 X104.09 Y105.222 E0.22048
G1 X104.575 Y104.994 E0.24722
G1 X105.089 Y104.841 E0.27397
G1 X105.83 Y104.75 E0.31122
G1 X143.496 Y104.749 E2.19038
G1 X144.194 Y104.759 E2.22521
G1 X144.728 Y104.807 E2.25196
G1 X145.249 Y104.933 E2.2787
G1 X145.746 Y105.136 E2.30548
G1 X146.207 Y105.41 E2.33224
G1 X146.622 Y105.749 E2.35897
G1 X146.982 Y106.147 E2.38575
G1 X147.279 Y106.593 E2.41248
G1 X147.507 Y107.079 E2.43926
G1 X147.659 Y107.593 E2.466
G1 X147.75 Y108.331 E2.5031
G1 X147.751 Y145.96 E4.38042
G1 X147.742 Y146.687 E4.41669
G1 X147.695 Y147.221 E4.44344
G1 X147.57 Y147.742 E4.47017
G1 X147.368 Y148.239 E4.49693
G1 X147.095 Y148.701 E4.52371
G1 X146.757 Y149.117 E4.55045
G1 X146.36 Y149.478 E4.57722
G1 X145.914 Y149.776 E4.60398
G1 X145.429 Y150.004 E4.63072
G1 X144.915 Y150.158 E4.65749
G1 X144.17 Y150.25 E4.69494
G1 X106.51 Y150.251 E6.5738
G1 X105.812 Y150.242 E6.60863
G1 X105.277 Y150.195 E6.63542
G1 X104.756 Y150.069 E6.66216
G1 X104.259 Y149.867 E6.68893
G1 X103.798 Y149.594 E6.71566
G1 X103.382 Y149.255 E6.74243
G1 X103.021 Y148.859 E6.76916
G1 X102.723 Y148.413 E6.79593
G1 X102.495 Y147.927 E6.82271
G1 X102.342 Y147.413 E6.84946
G1 X102.25 Y146.666 E6.88701
G1 X102.249 Y108.974 E8.76747
G0 F1600 X102.649 Y108.98
G1 F600 X102.658 Y108.315 E8.80065
G1 X102.705 Y107.811 E8.82591
G1 X102.831 Y107.322 E8.8511
G1 X103.032 Y106.858 E8.87633
G1 X103.303 Y106.431 E8.90156
G1 X103.638 Y106.053 E8.92676
G1 X104.029 Y105.732 E8.952
G1 X104.466 Y105.477 E8.97724
G1 X104.937 Y105.293 E9.00247
G1 X105.431 Y105.187 E9.02767
G1 X105.876 Y105.15 E9.04995
G1 X143.49 Y105.149 E10.92652
G1 X144.188 Y105.159 E10.96135
G1 X144.691 Y105.206 E10.98655
G1 X145.181 Y105.332 E11.0118
G1 X145.645 Y105.534 E11.03704
G1 X146.071 Y105.806 E11.06226
G1 X146.449 Y106.141 E11.08746
G1 X146.769 Y106.532 E11.11266
G1 X147.024 Y106.969 E11.13791
G1 X147.207 Y107.44 E11.16312
G1 X147.314 Y107.934 E11.18833
G1 X147.35 Y108.589 E11.22106
G1 X147.351 Y145.955 E13.08526
G1 X147.342 Y146.682 E13.12153
G1 X147.296 Y147.185 E13.14673
G1 X147.171 Y147.675 E13.17196
G1 X146.97 Y148.139 E13.19719
G1 X146.699 Y148.566 E13.22242
G1 X146.364 Y148.945 E13.24766
G1 X145.974 Y149.266 E13.27286
G1 X145.538 Y149.522 E13.29808
G1 X145.067 Y149.705 E13.32329
G1 X144.573 Y149.813 E13.34852
G1 X143.911 Y149.85 E13.3816
G1 X106.515 Y149.851 E15.24729
G1 X105.817 Y149.842 E15.28212
G1 X105.313 Y149.795 E15.30737
G1 X104.823 Y149.67 E15.3326
G1 X104.359 Y149.469 E15.35783
G1 X103.933 Y149.198 E15.38302
G1 X103.554 Y148.863 E15.40825
G1 X103.233 Y148.472 E15.43349
G1 X102.978 Y148.036 E15.45869
G1 X102.794 Y147.565 E15.48392
G1 X102.687 Y147.071 E15.50914
G1 X102.65 Y146.618 E15.53181
G1 X102.649 Y108.98 E17.40958
G1 F2700 E12.40958
;MESH:body656272
G0 F1600 X105.184 Y108.98
G0 X106.269 Y108.98
G0 X106.849 Y109.349
;TYPE:WALL-INNER
G1 F2700 E17.40958
G1 F600 X106.849 Y145.651 E19.22069
G1 X143.151 Y145.651 E21.03181
G1 X143.151 Y127.5 E21.93736
G1 X143.151 Y109.349 E22.84292
G1 X106.849 Y109.349 E24.65404
G0 F1600 X106.449 Y108.949
G1 F600 X106.449 Y146.051 E26.50506
G1 X143.551 Y146.051 E28.35609
G1 X143.551 Y127.5 E29.2816
G1 X143.551 Y108.949 E30.20711
G1 X106.449 Y108.949 E32.05814
G0 F1600 X106.049 Y108.549
;TYPE:WALL-OUTER
G1 F600 X106.049 Y146.451 E33.94908
G1 X143.951 Y146.451 E35.84002
G1 X143.951 Y127.5 E36.78549
G1 X143.951 Y108.549 E37.73096
G1 X106.049 Y108.549 E39.62189
G0 F1600 X106.049 Y108.749
G0 X106.719 Y109.219
G0 X107.229 Y109.729
;TYPE:SKIN
G1 F600 X107.229 Y145.271 E41.39509
G1 X142.771 Y145.271 E43.16829
G1 X142.771 Y127.5 E44.05489
G1 X142.771 Y109.729 E44.94149
G1 X107.229 Y109.729 E46.71468
G0 F1600 X142.173 Y109.928
G1 F600 X142.571 Y110.327 E46.7428
G0 F1600 X142.571 Y110.892
G1 F600 X141.607 Y109.928 E46.81082
G0 F1600 X141.041 Y109.928
G1 F600 X142.571 Y111.458 E46.91877
G0 F1600 X142.571 Y112.024
G1 F600 X140.475 Y109.928 E47.06665
G0 F1600 X139.91 Y109.928
G1 F600 X142.571 Y112.589 E47.2544
G0 F1600 X142.571 Y113.155
G1 F600 X139.344 Y109.928 E47.48208
G0 F1600 X138.778 Y109.928
G1 F600 X142.571 Y113.721 E47.7497
G0 F1600 X142.571 Y114.286
G1 F600 X138.213 Y109.928 E48.05718
G0 F1600 X137.647 Y109.928
G1 F600 X142.571 Y114.852 E48.40459
G0 F1600 X142.571 Y115.418
G1 F600 X137.081 Y109.928 E48.79194
G0 F1600 X136.516 Y109.928
G1 F600 X142.571 Y115.983 E49.21915
G0 F1600 X142.571 Y116.549
G1 F600 X135.95 Y109.928 E49.6863
G0 F1600 X135.384 Y109.928
G1 F600 X142.571 Y117.115 E50.19338
G0 F1600 X142.571 Y117.68
G1 F600 X134.819 Y109.928 E50.74033
G0 F1600 X134.253 Y109.928
G1 F600 X142.571 Y118.246 E51.32721
G0 F1600 X142.571 Y118.812
G1 F600 X133.687 Y109.928 E51.95402
G0 F1600 X133.122 Y109.928
G1 F600 X142.571 Y119.378 E52.62074
G0 F1600 X142.571 Y119.943
G1 F600 X132.556 Y109.928 E53.32735
G0 F1600 X131.99 Y109.928
G1 F600 X142.571 Y120.509 E54.07389
G0 F1600 X142.571 Y121.075
G1 F600 X131.424 Y109.928 E54.86038
G0 F1600 X130.859 Y109.928
G1 F600 X142.571 Y121.64 E55.68672
G0 F1600 X142.571 Y122.206
G1 F600 X130.293 Y109.928 E56.553
G0 F1600 X129.727 Y109.928
G1 F600 X142.571 Y122.772 E57.45921
G0 F1600 X142.571 Y123.337
G1 F600 X129.162 Y109.928 E58.40529
G0 F1600 X128.596 Y109.928
G1 F600 X142.571 Y123.903 E59.3913
G0 F1600 X142.571 Y124.469
G1 F600 X128.03 Y109.928 E60.41725
G0 F1600 X127.465 Y109.928
G1 F600 X142.571 Y125.034 E61.48306
G0 F1600 X142.571 Y125.6
G1 F600 X126.899 Y109.928 E62.5888
G0 F1600 X126.333 Y109.928
G1 F600 X142.571 Y126.166 E63.73448
G0 F1600 X142.571 Y126.731
G1 F600 X125.768 Y109.928 E64.92002
G0 F1600 X125.202 Y109.928
G1 F600 X142.571 Y127.297 E66.1455
G0 F1600 X142.571 Y127.863
G1 F600 X124.636 Y109.928 E67.41091
G0 F1600 X124.071 Y109.928
G1 F600 X142.571 Y128.428 E68.71619
G0 F1600 X142.571 Y128.994
G1 F600 X123.505 Y109.928 E70.0614
G0 F1600 X122.939 Y109.928
G1 F600 X142.571 Y129.56 E71.44654
G0 F1600 X142.571 Y130.126
G1 F600 X122.374 Y109.928 E72.87158
G0 F1600 X121.808 Y109.928
G1 F600 X142.571 Y130.691 E74.33652
G0 F1600 X142.571 Y131.257
G1 F600 X121.242 Y109.928 E75.8414
G0 F1600 X120.676 Y109.928
G1 F600 X142.571 Y131.823 E77.38621
G0 F1600 X142.571 Y132.388
G1 F600 X120.111 Y109.928 E78.97089
G0 F1600 X119.545 Y109.928
G1 F600 X142.571 Y132.954 E80.59549
G0 F1600 X142.571 Y133.52
G1 F600 X118.979 Y109.928 E82.26004
G0 F1600 X118.414 Y109.928
G1 F600 X142.571 Y134.085 E83.96444
G0 F1600 X142.571 Y134.651
G1 F600 X117.848 Y109.928 E85.70878
G0 F1600 X117.282 Y109.928
G1 F600 X142.571 Y135.217 E87.49306
G0 F1600 X142.571 Y135.782
G1 F600 X116.717 Y109.928 E89.3172
G0 F1600 X116.151 Y109.928
G1 F600 X142.571 Y136.348 E91.18127
G0 F1600 X142.571 Y136.914
G1 F600 X115.585 Y109.928 E93.08528
G0 F1600 X115.02 Y109.928
G1 F600 X142.571 Y137.479 E95.02915
G0 F1600 X142.571 Y138.045
G1 F600 X114.454 Y109.928 E97.01296
G0 F1600 X113.888 Y109.928
G1 F600 X142.571 Y138.611 E99.0367
G0 F1600 X142.571 Y139.176
G1 F600 X113.323 Y109.928 E101.1003
G0 F1600 X112.757 Y109.928
G1 F600 X142.571 Y139.742 E103.20384
G0 F1600 X142.571 Y140.308
G1 F600 X112.191 Y109.928 E105.34732
G0 F1600 X111.625 Y109.928
G1 F600 X142.571 Y140.874 E107.53072
G0 F1600 X142.571 Y141.439
G1 F600 X111.06 Y109.928 E109.754
G0 F1600 X110.494 Y109.928
G1 F600 X142.571 Y142.005 E112.0172
G0 F1600 X142.571 Y142.571
G1 F600 X109.928 Y109.928 E114.32034
G0 F1600 X109.363 Y109.928
G1 F600 X142.571 Y143.136 E116.66334
G0 F1600 X142.571 Y143.702
G1 F600 X108.797 Y109.928 E119.04628
G0 F1600 X108.231 Y109.928
G1 F600 X142.571 Y144.268 E121.46915
G0 F1600 X142.571 Y144.833
G1 F600 X107.666 Y109.928 E123.93189
G0 F1600 X107.429 Y110.257
G1 F600 X142.241 Y145.07 E126.3881
G0 F1600 X141.675 Y145.07
G1 F600 X107.429 Y110.823 E128.80438
G0 F1600 X107.429 Y111.389
G1 F600 X141.11 Y145.07 E131.18075
G0 F1600 X140.544 Y145.07
G1 F600 X107.429 Y111.954 E133.51723
G0 F1600 X107.429 Y112.52
G1 F600 X139.978 Y145.07 E135.81377
G0 F1600 X139.413 Y145.07
G1 F600 X107.429 Y113.086 E138.07042
G0 F1600 X107.429 Y113.651
G1 F600 X138.847 Y145.07 E140.28716
G0 F1600 X138.281 Y145.07
G1 F600 X107.429 Y114.217 E142.46397
G0 F1600 X107.429 Y114.783
G1 F600 X137.716 Y145.07 E144.60088
G0 F1600 X137.15 Y145.07
G1 F600 X107.429 Y115.348 E146.6979
G0 F1600 X107.429 Y115.914
G1 F600 X136.584 Y145.07 E148.75497
G0 F1600 X136.019 Y145.07
G1 F600 X107.429 Y116.48 E150.77215
G0 F1600 X107.429 Y117.045
G1 F600 X135.453 Y145.07 E152.74943
G0 F1600 X134.887 Y145.07
G1 F600 X107.429 Y117.611 E154.68678
G0 F1600 X107.429 Y118.177
G1 F600 X134.322 Y145.07 E156.58423
G0 F1600 X133.756 Y145.07
G1 F600 X107.429 Y118.743 E158.44174
G0 F1600 X107.429 Y119.308
G1 F600 X133.19 Y145.07 E160.25935
G0 F1600 X132.624 Y145.07
G1 F600 X107.429 Y119.874 E162.03703
G0 F1600 X107.429 Y120.44
G1 F600 X132.059 Y145.07 E163.77481
G0 F1600 X131.493 Y145.07
G1 F600 X107.429 Y121.005 E165.47269
G0 F1600 X107.429 Y121.571
G1 F600 X130.927 Y145.07 E167.13063
G0 F1600 X130.362 Y145.07
G1 F600 X107.429 Y122.137 E168.74868
G0 F1600 X107.429 Y122.702
G1 F600 X129.796 Y145.07 E170.32683
G0 F1600 X129.23 Y145.07
G1 F600 X107.429 Y123.268 E171.86504
G0 F1600 X107.429 Y123.834
G1 F600 X128.665 Y145.07 E173.36336
G0 F1600 X128.099 Y145.07
G1 F600 X107.429 Y124.399 E174.82177
G0 F1600 X107.429 Y124.965
G1 F600 X127.533 Y145.07 E176.24025
G0 F1600 X126.968 Y145.07
G1 F600 X107.429 Y125.531 E177.61884
G0 F1600 X107.429 Y126.096
G1 F600 X126.402 Y145.07 E178.95752
G0 F1600 X125.836 Y145.07
G1 F600 X107.429 Y126.662 E180.25627
G0 F1600 X107.429 Y127.228
G1 F600 X125.271 Y145.07 E181.51512
G0 F1600 X124.705 Y145.07
G1 F600 X107.429 Y127.793 E182.73407
G0 F1600 X107.429 Y128.359
G1 F600 X124.139 Y145.07 E183.91308
G0 F1600 X123.573 Y145.07
G1 F600 X107.429 Y128.925 E185.05217
G0 F1600 X107.429 Y129.491
G1 F600 X123.008 Y145.07 E186.15135
G0 F1600 X122.442 Y145.07
G1 F600 X107.429 Y130.056 E187.21063
G0 F1600 X107.429 Y130.622
G1 F600 X121.876 Y145.07 E188.22998
G0 F1600 X121.311 Y145.07
G1 F600 X107.429 Y131.188 E189.20943
G0 F1600 X107.429 Y131.753
G1 F600 X120.745 Y145.07 E190.14898
G0 F1600 X120.179 Y145.07
G1 F600 X107.429 Y132.319 E191.0486
G0 F1600 X107.429 Y132.885
G1 F600 X119.614 Y145.07 E191.90832
G0 F1600 X119.048 Y145.07
G1 F600 X107.429 Y133.45 E192.72813
G0 F1600 X107.429 Y134.016
G1 F600 X118.482 Y145.07 E193.50802
G0 F1600 X117.917 Y145.07
G1 F600 X107.429 Y134.582 E194.248
G0 F1600 X107.429 Y135.147
G1 F600 X117.351 Y145.07 E194.94809
G0 F1600 X116.785 Y145.07
G1 F600 X107.429 Y135.713 E195.60824
G0 F1600 X107.429 Y136.279
G1 F600 X116.22 Y145.07 E196.22849
G0 F1600 X115.654 Y145.07
G1 F600 X107.429 Y136.844 E196.80885
G0 F1600 X107.429 Y137.41
G1 F600 X115.088 Y145.07 E197.34927
G0 F1600 X114.523 Y145.07
G1 F600 X107.429 Y137.976 E197.84979
G0 F1600 X107.429 Y138.542
G1 F600 X113.957 Y145.07 E198.31037
G0 F1600 X113.391 Y145.07
G1 F600 X107.429 Y139.107 E198.73106
G0 F1600 X107.429 Y139.673
G1 F600 X112.825 Y145.07 E199.11181
G0 F1600 X112.26 Y145.07
G1 F600 X107.429 Y140.239 E199.45266
G0 F1600 X107.429 Y140.804
G1 F600 X111.694 Y145.07 E199.75362
G0 F1600 X111.128 Y145.07
G1 F600 X107.429 Y141.37 E200.01464
G0 F1600 X107.429 Y141.936
G1 F600 X110.563 Y145.07 E200.23576
G0 F1600 X109.997 Y145.07
G1 F600 X107.429 Y142.501 E200.41698
G0 F1600 X107.429 Y143.067
G1 F600 X109.431 Y145.07 E200.55827
G0 F1600 X108.866 Y145.07
G1 F600 X107.429 Y143.633 E200.65966
G0 F1600 X107.429 Y144.198
G1 F600 X108.3 Y145.07 E200.72114
G0 F1600 X107.734 Y145.07
G1 F600 X107.429 Y144.764 E200.7427
;MESH:NONMESH
G0 X107.429 Y144.764 Z0.5
G0 F1600 X106.719 Y109.219
G0 X106.599 Y109.099
;TIME_ELAPSED:415.606379
;LAYER:1
M106 S255
;TYPE:WALL-INNER
;MESH:body656272
G1 F1650 X106.599 Y145.901 E201.96674
G1 X143.401 Y145.901 E203.19078
G1 X143.401 Y109.099 E204.41482
G1 X106.599 Y109.099 E205.63886
G0 F4400 X106.199 Y108.699
G1 F1650 X106.199 Y146.301 E206.8895
G1 X143.801 Y146.301 E208.14015
G1 X143.801 Y108.699 E209.3908
G1 X106.199 Y108.699 E210.64145
G0 F4400 X105.799 Y108.299
;TYPE:WALL-OUTER
G1 F975 X105.799 Y146.701 E211.9187
G1 X144.201 Y146.701 E213.19596
G1 X144.201 Y108.299 E214.47321
G1 X105.799 Y108.299 E215.75047
G0 F4400 X105.799 Y108.499
G0 X106.469 Y108.969
G0 X106.979 Y109.479
;TYPE:SKIN
G1 F975 X106.979 Y145.521 E216.94923
G1 X143.021 Y145.521 E218.14799
G1 X143.021 Y127.5 E218.74737
G1 X143.021 Y109.479 E219.34676
G1 X106.979 Y109.479 E220.54552
G0 F4400 X107.545 Y109.677
G1 F975 X107.179 Y110.044 E220.56276
G0 F4400 X107.179 Y110.609
G1 F975 X108.11 Y109.677 E220.60657
G0 F4400 X108.676 Y109.677
G1 F975 X107.179 Y111.175 E220.67701
G0 F4400 X107.179 Y111.741
G1 F975 X109.242 Y109.677 E220.77407
G0 F4400 X109.808 Y109.677
G1 F975 X107.179 Y112.306 E220.89773
G0 F4400 X107.179 Y112.872
G1 F975 X110.373 Y109.677 E221.04799
G0 F4400 X110.939 Y109.677
G1 F975 X107.179 Y113.438 E221.22487
G0 F4400 X107.179 Y114.003
G1 F975 X111.505 Y109.677 E221.42835
G0 F4400 X112.07 Y109.677
G1 F975 X107.179 Y114.569 E221.65843
G0 F4400 X107.179 Y115.135
G1 F975 X112.636 Y109.677 E221.91514
G0 F4400 X113.202 Y109.677
G1 F975 X107.179 Y115.701 E222.19847
G0 F4400 X107.179 Y116.266
G1 F975 X113.767 Y109.677 E222.50837
G0 F4400 X114.333 Y109.677
G1 F975 X107.179 Y116.832 E222.84489
G0 F4400 X107.179 Y117.398
G1 F975 X114.899 Y109.677 E223.20804
G0 F4400 X115.464 Y109.677
G1 F975 X107.179 Y117.963 E223.59777
G0 F4400 X107.179 Y118.529
G1 F975 X116.03 Y109.677 E224.01411
G0 F4400 X116.596 Y109.677
G1 F975 X107.179 Y119.095 E224.45709
G0 F4400 X107.179 Y119.66
G1 F975 X117.161 Y109.677 E224.92663
G0 F4400 X117.727 Y109.677
G1 F975 X107.179 Y120.226 E225.4228
G0 F4400 X107.179 Y120.792
G1 F975 X118.293 Y109.677 E225.94559
G0 F4400 X118.858 Y109.677
G1 F975 X107.179 Y121.357 E226.49496
G0 F4400 X107.179 Y121.923
G1 F975 X119.424 Y109.677 E227.07095
G0 F4400 X119.99 Y109.677
G1 F975 X107.179 Y122.489 E227.67356
G0 F4400 X107.179 Y123.054
G1 F975 X120.556 Y109.677 E228.30278
G0 F4400 X121.121 Y109.677
G1 F975 X107.179 Y123.62 E228.95859
G0 F4400 X107.179 Y124.186
G1 F975 X121.687 Y109.677 E229.64103
G0 F4400 X122.253 Y109.677
G1 F975 X107.179 Y124.752 E230.35008
G0 F4400 X107.179 Y125.317
G1 F975 X122.818 Y109.677 E231.08572
G0 F4400 X123.384 Y109.677
G1 F975 X107.179 Y125.883 E231.84798
G0 F4400 X107.179 Y126.449
G1 F975 X123.95 Y109.677 E232.63686
G0 F4400 X124.515 Y109.677
G1 F975 X107.179 Y127.014 E233.45231
G0 F4400 X107.179 Y127.58
G1 F975 X125.08 Y109.678 E234.29434
G0 F4400 X125.646 Y109.678
G1 F975 X107.179 Y128.146 E235.163
G0 F4400 X107.179 Y128.711
G1 F975 X126.212 Y109.678 E236.05825
G0 F4400 X126.777 Y109.678
G1 F975 X107.179 Y129.277 E236.9801
G0 F4400 X107.179 Y129.843
G1 F975 X127.343 Y109.678 E237.92858
G0 F4400 X127.909 Y109.678
G1 F975 X107.179 Y130.408 E238.90366
G0 F4400 X107.179 Y130.974
G1 F975 X128.474 Y109.678 E239.90533
G0 F4400 X129.04 Y109.678
G1 F975 X107.179 Y131.54 E240.93363
G0 F4400 X107.179 Y132.105
G1 F975 X129.606 Y109.678 E241.98853
G0 F4400 X130.171 Y109.678
G1 F975 X107.179 Y132.671 E243.07002
