;FLAVOR:Marlin
;TIME:4536
;Filament used: 3.47549m
;Layer height: 0.2
;MINX:82.899
;MINY:98.158
;MINZ:0.3
;MAXX:167.098
;MAXY:156.853
;MAXZ:8.9
;Generated with Cura_SteamEngine main
M140 S60
M105
M190 S60
M104 S200
M105
M109 S200
M82 ;absolute extrusion mode
G21 ;metric values
G90 ;absolute positioning
M82 ;set extruder to absolute mode
M107 ;start with the fan off
G28 X0 Y0 ;move X/Y to min endstops
M300 S1318 P266
G28 Z0 ;move Z to min endstops
G0 Z0.2
G92 E0 ;zero the extruded length
G1 X40 E25 F400 ; Extrude 25mm of filament in a 4cm line. Reduce speed (F) if you have a nozzle smaller than 0.4mm!
G92 E0 ;zero the extruded length again
G1 E-1 F500 ; Retract a little
G1 X80 F4000 ; Quickly wipe away from the filament line
M117 ; Printing…
G5
G92 E0
G92 E0
G1 F2700 E-5
;LAYER_COUNT:45
;LAYER:0
M107
G0 F1600 X84.763 Y99.436 Z0.3
G0 X82.906 Y103.997
;TYPE:SKIRT
G1 F2700 E0
G1 F600 X82.917 Y103.266 E0.03647
G1 X82.999 Y102.594 E0.07025
G1 X83.129 Y102.031 E0.09908
G1 X83.37 Y101.35 E0.13512
G1 X83.536 Y101.009 E0.15404
G1 X83.917 Y100.407 E0.18958
G1 X84.315 Y99.911 E0.22131
G1 X84.763 Y99.436 E0.25388
G1 X85.487 Y98.945 E0.29753
G1 X86.012 Y98.648 E0.32762
G1 X86.852 Y98.36 E0.37192
G1 X87.511 Y98.22 E0.40553
G1 X88.275 Y98.158 E0.44378
G1 X161.367 Y98.169 E4.09035
G1 X162.045 Y98.179 E4.12418
G1 X162.618 Y98.234 E4.1529
G1 X163.399 Y98.436 E4.19314
G1 X163.998 Y98.643 E4.22476
G1 X164.703 Y99.067 E4.26581
G1 X165.164 Y99.397 E4.29409
G1 X165.692 Y99.918 E4.3311
G1 X166.258 Y100.619 E4.37605
G1 X166.654 Y101.369 E4.41836
G1 X166.904 Y102.15 E4.45927
G1 X167.038 Y102.786 E4.4917
G1 X167.098 Y103.459 E4.52541
G1 X167.094 Y150.995 E6.89699
G1 X167.084 Y151.697 E6.93202
G1 X167.022 Y152.34 E6.96424
G1 X166.876 Y153.02 E6.99894
G1 X166.524 Y153.906 E7.04651
G1 X166.011 Y154.735 E7.09514
G1 X165.501 Y155.294 E7.13289
G1 X165.162 Y155.602 E7.15575
G1 X164.574 Y156.046 E7.19251
G1 X163.876 Y156.387 E7.23126
G1 X163.31 Y156.597 E7.26138
G1 X162.824 Y156.735 E7.28659
G1 X162.014 Y156.841 E7.32734
G1 X161.087 Y156.853 E7.37359
G1 X88.731 Y156.847 E10.98345
G1 X88.082 Y156.838 E11.01583
G1 X87.416 Y156.758 E11.0493
G1 X86.73 Y156.602 E11.0844
G1 X86.118 Y156.412 E11.11637
G1 X85.416 Y156.012 E11.15667
G1 X84.743 Y155.536 E11.1978
G1 X84.162 Y154.945 E11.23915
G1 X83.716 Y154.302 E11.27819
G1 X83.385 Y153.694 E11.31273
G1 X83.176 Y153.143 E11.34213
G1 X82.977 Y152.302 E11.38524
G1 X82.915 Y151.73 E11.41395
G1 X82.899 Y150.734 E11.46364
G1 X82.906 Y103.997 E13.79536
G1 F2700 E8.79536
;MESH:body200033
G0 F1600 X85.44 Y103.999
G0 X86.525 Y103.999
G0 X91.948 Y122.753
;TYPE:WALL-INNER
G1 F2700 E13.79536
G1 F600 X91.971 Y122.263 E13.81984
G1 X92.061 Y121.737 E13.84646
G1 X92.257 Y121.128 E13.87838
G1 X92.746 Y120.296 E13.92652
G1 X93.261 Y119.753 E13.96386
G1 X93.705 Y119.425 E13.9914
G1 X94.158 Y119.166 E14.01743
G1 X94.793 Y118.933 E14.05118
G1 X95.279 Y118.839 E14.07588
G1 X95.98 Y118.807 E14.11089
G1 X96.538 Y118.874 E14.13892
G1 X97.185 Y119.056 E14.17246
G1 X97.95 Y119.453 E14.21546
G1 X98.482 Y119.89 E14.2498
G1 X99.038 Y120.557 E14.29313
G1 X99.44 Y121.377 E14.33869
G1 X99.629 Y122.187 E14.38018
G1 X99.63 Y123.062 E14.42384
G1 X99.521 Y123.667 E14.45451
G1 X99.188 Y124.493 E14.49894
G1 X98.874 Y124.977 E14.52772
G1 X98.486 Y125.42 E14.5571
G1 X97.909 Y125.881 E14.59395
G1 X97.345 Y126.181 E14.62582
G1 X96.622 Y126.421 E14.66383
G1 X95.893 Y126.504 E14.70043
G1 X95.327 Y126.474 E14.72871
G1 X94.806 Y126.374 E14.75518
G1 X94.113 Y126.124 E14.79193
G1 X93.382 Y125.66 E14.83513
G1 X92.857 Y125.143 E14.87189
G1 X92.46 Y124.584 E14.90609
G1 X92.16 Y123.924 E14.94226
G1 X92.017 Y123.379 E14.97037
G1 X91.948 Y122.753 E15.00179
G0 F1600 X92.314 Y123.873
G0 X92.978 Y125.036
G0 X94.181 Y125.975
G0 X95.885 Y126.345
G0 X97.297 Y126.03
G0 X102.5 Y122.713
G1 F600 X102.537 Y122.127 E15.03109
G1 X102.641 Y121.62 E15.05691
G1 X102.885 Y120.962 E15.09192
G1 X103.316 Y120.275 E15.13238
G1 X103.827 Y119.744 E15.16915
G1 X104.201 Y119.458 E15.19264
G1 X104.722 Y119.164 E15.22248
G1 X105.336 Y118.938 E15.25512
G1 X105.83 Y118.835 E15.2803
G1 X106.53 Y118.807 E15.31525
G1 X107.095 Y118.873 E15.34363
G1 X107.76 Y119.068 E15.37821
G1 X108.487 Y119.451 E15.4192
G1 X109.028 Y119.878 E15.45359
G1 X109.58 Y120.544 E15.49674
G1 X109.991 Y121.38 E15.54322
G1 X110.18 Y122.187 E15.58457
G1 X110.181 Y123.089 E15.62957
G1 X110.034 Y123.762 E15.66394
G1 X109.738 Y124.501 E15.70365
G1 X109.382 Y125.028 E15.73538
G1 X108.96 Y125.483 E15.76634
G1 X108.461 Y125.88 E15.79816
G1 X107.91 Y126.175 E15.82934
G1 X107.19 Y126.415 E15.8672
G1 X106.437 Y126.504 E15.90503
G1 X106.018 Y126.49 E15.92595
G1 X105.37 Y126.378 E15.95875
G1 X104.672 Y126.126 E15.99578
G1 X103.937 Y125.663 E16.03912
G1 X103.415 Y125.151 E16.07559
G1 X103.017 Y124.594 E16.10975
G1 X102.713 Y123.931 E16.14614
G1 X102.558 Y123.313 E16.17792
G1 X102.5 Y122.713 E16.208
G0 F1600 X102.864 Y123.873
G0 X116.65 Y147.449
G1 F600 X116.65 Y131.937 E16.98189
G1 X116.651 Y107.558 E18.19817
G1 X116.752 Y107.216 E18.21596
G1 X116.993 Y106.901 E18.23575
G1 X117.18 Y106.772 E18.24708
G1 X117.405 Y106.685 E18.25912
G1 X117.651 Y106.655 E18.27148
G1 X157.349 Y106.655 E20.25202
G1 X157.639 Y106.697 E20.26664
G1 X157.893 Y106.815 E20.28061
G1 X158.091 Y106.983 E20.29357
G1 X158.227 Y107.172 E20.30518
G1 X158.318 Y107.402 E20.31752
G1 X158.349 Y107.655 E20.33024
G1 X158.35 Y147.353 E22.31078
G1 X158.317 Y147.608 E22.32361
G1 X158.225 Y147.838 E22.33597
G1 X158.088 Y148.027 E22.34761
G1 X157.891 Y148.194 E22.3605
G1 X157.638 Y148.311 E22.37441
G1 X157.349 Y148.353 E22.38898
G1 X117.65 Y148.354 E24.36957
G1 X117.403 Y148.324 E24.38198
G1 X117.179 Y148.237 E24.39397
G1 X116.992 Y148.108 E24.4053
G1 X116.75 Y147.793 E24.42512
G1 X116.65 Y147.449 E24.44299
G0 F1600 X87.224 Y152.007
G1 F600 X87.428 Y152.299 E24.46076
G1 X87.804 Y152.552 E24.48337
G1 X88.195 Y152.647 E24.50345
G1 X161.737 Y152.653 E28.17247
G1 X161.977 Y152.625 E28.18453
G1 X162.291 Y152.514 E28.20114
G1 X162.614 Y152.253 E28.22186
G1 X162.806 Y151.944 E28.24001
G1 X162.894 Y151.585 E28.25845
G1 X162.897 Y103.525 E30.65618
G1 X162.882 Y103.336 E30.66564
G1 X162.76 Y102.966 E30.68507
G1 X162.448 Y102.603 E30.70895
G1 X162.187 Y102.451 E30.72402
G1 X161.87 Y102.37 E30.74034
G1 X88.113 Y102.356 E34.4201
G1 X87.735 Y102.487 E34.44006
G1 X87.48 Y102.665 E34.45557
G1 X87.264 Y102.929 E34.47259
G1 X87.189 Y103.082 E34.48109
G1 X87.107 Y103.465 E34.50063
G1 X87.1 Y151.573 E36.90075
G1 X87.224 Y152.007 E36.92327
G0 F1600 X86.7 Y151.609
G1 F600 X86.747 Y151.869 E36.93645
G1 X86.867 Y152.194 E36.95373
G1 X87.125 Y152.565 E36.97628
G1 X87.299 Y152.723 E36.988
G1 X87.654 Y152.927 E37.00843
G1 X88.147 Y153.047 E37.03374
G1 X161.76 Y153.053 E40.70631
G1 X162.067 Y153.018 E40.72173
G1 X162.465 Y152.877 E40.74279
G1 X162.646 Y152.766 E40.75339
G1 X162.911 Y152.524 E40.77129
G1 X163.178 Y152.097 E40.79641
G1 X163.294 Y151.611 E40.82134
G1 X163.297 Y103.525 E43.22036
G1 X163.276 Y103.251 E43.23407
G1 X163.124 Y102.793 E43.25815
G1 X162.98 Y102.568 E43.27148
G1 X162.693 Y102.283 E43.29165
G1 X162.34 Y102.078 E43.31202
G1 X161.921 Y101.97 E43.33361
G1 X88.238 Y101.956 E47.00967
G1 X87.965 Y101.984 E47.02336
G1 X87.552 Y102.127 E47.04516
G1 X87.206 Y102.368 E47.0662
G1 X86.924 Y102.712 E47.08839
G1 X86.808 Y102.951 E47.10165
G1 X86.707 Y103.422 E47.12568
G1 X86.7 Y151.609 E49.52974
G0 F1600 X86.998 Y151.58
G0 X92.049 Y122.709
G0 X92.348 Y122.725
G1 F600 X92.37 Y122.283 E49.55182
G1 X92.454 Y121.811 E49.57573
G1 X92.625 Y121.291 E49.60304
G1 X93.07 Y120.536 E49.64677
G1 X93.492 Y120.091 E49.67736
G1 X93.903 Y119.773 E49.70329
G1 X94.332 Y119.528 E49.72794
G1 X94.898 Y119.32 E49.75802
G1 X95.327 Y119.236 E49.77983
G1 X95.965 Y119.207 E49.81169
G1 X96.458 Y119.266 E49.83646
G1 X97.029 Y119.43 E49.8661
G1 X97.727 Y119.788 E49.90524
G1 X98.2 Y120.174 E49.9357
G1 X98.697 Y120.772 E49.97449
G1 X99.061 Y121.516 E50.01581
G1 X99.229 Y122.229 E50.05236
G1 X99.23 Y123.036 E50.09262
G1 X99.121 Y123.591 E50.12084
G1 X98.84 Y124.289 E50.15838
G1 X98.557 Y124.733 E50.18465
G1 X98.173 Y125.16 E50.2133
G1 X97.703 Y125.533 E50.24323
G1 X97.2 Y125.811 E50.27191
G1 X96.527 Y126.031 E50.30723
G1 X95.921 Y126.101 E50.33766
G1 X95.4 Y126.081 E50.36368
G1 X94.86 Y125.972 E50.39116
G1 X94.29 Y125.758 E50.42154
G1 X93.635 Y125.347 E50.46011
G1 X93.163 Y124.884 E50.4931
G1 X92.809 Y124.384 E50.52367
G1 X92.538 Y123.79 E50.55624
G1 X92.411 Y123.31 E50.58101
G1 X92.348 Y122.725 E50.61036
G0 F1600 X92.049 Y122.709
G0 X92.314 Y123.873
G0 X92.978 Y125.036
G0 X94.181 Y125.975
G0 X95.885 Y126.345
G0 X97.297 Y126.03
G0 X102.602 Y122.663
G0 X102.9 Y122.679
G1 F600 X102.93 Y122.202 E50.63421
G1 X103.022 Y121.741 E50.65766
G1 X103.245 Y121.14 E50.68964
G1 X103.631 Y120.524 E50.72591
G1 X104.087 Y120.048 E50.7588
G1 X104.452 Y119.773 E50.7816
G1 X104.88 Y119.531 E50.80613
G1 X105.445 Y119.323 E50.83616
G1 X105.846 Y119.24 E50.85659
G1 X106.515 Y119.207 E50.89001
G1 X106.983 Y119.262 E50.91352
G1 X107.585 Y119.432 E50.94473
G1 X108.269 Y119.786 E50.98315
G1 X108.749 Y120.169 E51.01379
G1 X109.243 Y120.766 E51.05245
G1 X109.614 Y121.521 E51.09442
G1 X109.78 Y122.231 E51.1308
G1 X109.781 Y123.051 E51.17171
G1 X109.663 Y123.613 E51.20036
G1 X109.382 Y124.311 E51.23789
G1 X109.137 Y124.691 E51.26045
G1 X108.754 Y125.135 E51.28971
G1 X108.282 Y125.511 E51.31981
G1 X107.759 Y125.807 E51.34979
G1 X107.079 Y126.031 E51.38551
G1 X106.471 Y126.101 E51.41605
G1 X105.99 Y126.087 E51.44005
G1 X105.469 Y125.991 E51.46648
G1 X104.846 Y125.764 E51.49956
G1 X104.184 Y125.346 E51.53862
G1 X103.706 Y124.871 E51.57224
G1 X103.371 Y124.399 E51.60112
G1 X103.087 Y123.788 E51.63474
G1 X102.956 Y123.27 E51.66139
G1 X102.9 Y122.679 E51.69101
G0 F1600 X102.602 Y122.663
G0 X102.864 Y123.873
G0 X103.528 Y125.036
G0 X104.429 Y125.783
G0 X116.751 Y131.936
G0 X117.05 Y131.937
G1 F600 X117.056 Y107.575 E52.90643
G1 X117.111 Y107.391 E52.91602
G1 X117.256 Y107.202 E52.9279
G1 X117.537 Y107.055 E52.94372
G1 X157.469 Y107.055 E54.93594
G1 X157.676 Y107.151 E54.94732
G1 X157.876 Y107.365 E54.96193
G1 X157.949 Y107.548 E54.97176
G1 X157.95 Y147.469 E56.96343
G1 X157.793 Y147.758 E56.97984
G1 X157.482 Y147.953 E56.99815
G1 X117.536 Y147.954 E58.99107
G1 X117.255 Y147.807 E59.00689
G1 X117.11 Y147.618 E59.01877
G1 X117.055 Y147.434 E59.02835
G1 X117.05 Y131.937 E59.8015
G0 F1600 X116.751 Y131.936
G0 X116.751 Y147.473
G0 X117.49 Y147.474
;TYPE:WALL-OUTER
G1 F600 X117.451 Y147.4 E59.80568
G1 X117.45 Y131.937 E60.57713
G1 X117.452 Y107.628 E61.78991
G1 X117.519 Y107.504 E61.79694
G1 X117.616 Y107.457 E61.80232
G1 X157.394 Y107.455 E63.78685
G1 X157.498 Y107.52 E63.79297
G1 X157.549 Y107.615 E63.79835
G1 X157.547 Y147.388 E65.78263
G1 X157.458 Y147.522 E65.79066
G1 X157.384 Y147.551 E65.79462
G1 X117.616 Y147.554 E67.77866
G1 X117.49 Y147.474 E67.7861
G0 F1600 X117.451 Y147.4
G0 X117.451 Y147.283
G0 X116.751 Y147.282
G0 X103.153 Y124.503
G0 X102.602 Y122.663
G0 X103.3 Y122.699
G1 F600 X103.323 Y122.276 E67.80724
G1 X103.397 Y121.886 E67.82704
G1 X103.599 Y121.337 E67.85623
G1 X103.939 Y120.783 E67.88866
G1 X104.347 Y120.352 E67.91826
G1 X104.64 Y120.127 E67.9367
G1 X105.054 Y119.892 E67.96045
G1 X105.554 Y119.708 E67.98703
G1 X105.915 Y119.634 E68.00541
G1 X106.5 Y119.607 E68.03463
G1 X106.921 Y119.657 E68.05578
G1 X107.439 Y119.804 E68.08264
G1 X108.035 Y120.112 E68.11611
G1 X108.481 Y120.472 E68.14471
G1 X108.891 Y120.967 E68.17678
G1 X109.224 Y121.634 E68.21397
G1 X109.38 Y122.299 E68.24805
G1 X109.381 Y122.995 E68.28277
G1 X109.302 Y123.427 E68.30468
G1 X109.017 Y124.139 E68.34294
G1 X108.801 Y124.474 E68.36283
G1 X108.461 Y124.857 E68.38838
G1 X108.033 Y125.198 E68.41568
G1 X107.578 Y125.446 E68.44153
G1 X107.011 Y125.632 E68.4713
G1 X106.409 Y125.704 E68.50155
G1 X106.036 Y125.689 E68.52018
G1 X105.569 Y125.603 E68.54387
G1 X105.024 Y125.403 E68.57283
G1 X104.44 Y125.035 E68.60727
G1 X104.016 Y124.619 E68.6369
G1 X103.711 Y124.189 E68.6632
G1 X103.462 Y123.639 E68.69332
G1 X103.359 Y123.258 E68.71302
G1 X103.3 Y122.699 E68.74106
G0 F1600 X103.31 Y122.499
G0 X102.612 Y122.463
G0 X97.851 Y119.582
G0 X97.127 Y119.207
G0 X95.975 Y118.966
G0 X94.829 Y119.092
G0 X93.362 Y119.882
G0 X92.407 Y121.194
G0 X92.052 Y122.663
G0 X92.75 Y122.699
G1 F600 X92.773 Y122.276 E68.76219
G1 X92.854 Y121.857 E68.78348
G1 X92.985 Y121.476 E68.80358
G1 X93.405 Y120.764 E68.84483
G1 X93.805 Y120.346 E68.87369
G1 X94.077 Y120.136 E68.89083
G1 X94.488 Y119.9 E68.91448
G1 X95.019 Y119.704 E68.94272
G1 X95.375 Y119.633 E68.96083
G1 X95.95 Y119.607 E68.98954
G1 X96.379 Y119.658 E69.0111
G1 X96.908 Y119.813 E69.0386
G1 X97.502 Y120.122 E69.072
G1 X97.91 Y120.45 E69.09812
G1 X98.349 Y120.978 E69.13238
G1 X98.687 Y121.667 E69.17067
G1 X98.826 Y122.263 E69.2012
G1 X98.83 Y123.009 E69.23842
G1 X98.752 Y123.428 E69.25968
G1 X98.479 Y124.117 E69.29666
G1 X98.241 Y124.488 E69.31865
G1 X97.936 Y124.834 E69.34166
G1 X97.473 Y125.205 E69.37126
G1 X97.041 Y125.441 E69.39582
G1 X96.445 Y125.636 E69.4271
G1 X95.861 Y125.704 E69.45644
G1 X95.472 Y125.687 E69.47586
G1 X94.999 Y125.597 E69.49988
G1 X94.466 Y125.399 E69.52825
G1 X93.867 Y125.015 E69.56375
G1 X93.458 Y124.608 E69.59253
G1 X93.149 Y124.166 E69.61944
G1 X92.912 Y123.639 E69.64827
G1 X92.805 Y123.241 E69.66883
G1 X92.75 Y122.699 E69.69601
G0 F1600 X92.76 Y122.499
G0 X92.062 Y122.463
G0 X86.998 Y151.58
G0 X86.3 Y151.645
G1 F600 X86.359 Y151.975 E69.71273
G1 X86.509 Y152.381 E69.73433
G1 X86.823 Y152.831 E69.7617
G1 X87.062 Y153.048 E69.77781
G1 X87.504 Y153.303 E69.80327
G1 X88.099 Y153.447 E69.83381
G1 X161.782 Y153.453 E73.50987
G1 X162.157 Y153.41 E73.5287
G1 X162.638 Y153.24 E73.55415
G1 X162.888 Y153.087 E73.56877
G1 X163.208 Y152.794 E73.59042
G1 X163.395 Y152.547 E73.60588
G1 X163.55 Y152.249 E73.62263
G1 X163.659 Y151.895 E73.64111
G1 X163.694 Y151.637 E73.6541
G1 X163.697 Y103.525 E76.05442
G1 X163.67 Y103.167 E76.07233
G1 X163.488 Y102.62 E76.10109
G1 X163.294 Y102.316 E76.11909
G1 X162.939 Y101.963 E76.14406
G1 X162.494 Y101.704 E76.16975
G1 X161.972 Y101.57 E76.19664
G1 X88.217 Y101.556 E79.87629
G1 X87.878 Y101.591 E79.89329
G1 X87.369 Y101.767 E79.92016
G1 X86.932 Y102.072 E79.94675
G1 X86.585 Y102.494 E79.97401
G1 X86.427 Y102.819 E79.99203
G1 X86.307 Y103.38 E80.02066
G1 X86.3 Y151.645 E82.42861
G0 F1600 X86.335 Y151.842
G0 X87.024 Y151.721
G0 X87.481 Y151.531
;TYPE:SKIN
G1 F600 X87.567 Y151.834 E82.44432
G1 X87.706 Y152.034 E82.45647
G1 X87.952 Y152.196 E82.47117
G1 X88.242 Y152.267 E82.48606
G1 X161.838 Y152.272 E86.15778
G1 X162.115 Y152.173 E86.17246
G1 X162.326 Y151.999 E86.1861
G1 X162.452 Y151.795 E86.19806
G1 X162.514 Y151.546 E86.21087
G1 X162.516 Y103.575 E88.60415
G1 X162.516 Y103.445 E88.61063
G1 X162.42 Y103.147 E88.62625
G1 X162.206 Y102.904 E88.64241
G1 X162.044 Y102.808 E88.6518
G1 X161.819 Y102.75 E88.6634
G1 X88.174 Y102.737 E92.33756
G1 X87.91 Y102.829 E92.35151
G1 X87.744 Y102.944 E92.36158
G1 X87.548 Y103.227 E92.37876
G1 X87.487 Y103.508 E92.3931
G1 X87.481 Y151.531 E94.78898
G0 F1600 X116.396 Y147.928
G1 F600 X116.271 Y147.486 E94.8119
G1 X116.272 Y107.522 E96.80571
G1 X116.397 Y107.081 E96.82858
G1 X116.717 Y106.643 E96.85564
G1 X117.02 Y106.427 E96.8742
G1 X117.324 Y106.313 E96.8904
G1 X117.63 Y106.276 E96.90578
G1 X157.375 Y106.277 E98.88867
G1 X157.778 Y106.344 E98.90905
G1 X158.076 Y106.483 E98.92545
G1 X158.372 Y106.726 E98.94456
G1 X158.549 Y106.969 E98.95956
G1 X158.679 Y107.28 E98.97637
G1 X158.73 Y107.655 E98.99525
G1 X158.729 Y147.376 E100.97694
G1 X158.693 Y147.673 E100.99187
G1 X158.547 Y148.041 E101.01162
G1 X158.383 Y148.268 E101.02559
G1 X158.117 Y148.498 E101.04314
G1 X157.716 Y148.683 E101.06517
G1 X157.345 Y148.733 E101.08385
G1 X117.628 Y148.733 E103.06533
G1 X117.336 Y148.697 E103.08001
G1 X117.02 Y148.582 E103.09679
G1 X116.716 Y148.366 E103.11539
G1 X116.396 Y147.928 E103.14246
G0 F1600 X102.12 Y122.735
G1 F600 X102.163 Y122.054 E103.1765
G1 X102.272 Y121.519 E103.20374
G1 X102.536 Y120.809 E103.24153
G1 X103.003 Y120.057 E103.28569
