;FLAVOR:Marlin
;TIME:1097
;Filament used: 0.840835m
;Layer height: 0.2
;MINX:112.489
;MINY:114.988
;MINZ:0.3
;MAXX:137.511
;MAXY:140.012
;MAXZ:14.9
;Generated with Cura_SteamEngine main
M140 S60
M105
M190 S60
M104 S210
M105
M109 S210
M82 ;absolute extrusion mode
G21 ;metric values
G90 ;absolute positioning
M82 ;set extruder to absolute mode
M107 ;start with the fan off
G28 X0 Y0 ;move X/Y to min endstops
M300 S1318 P266
G28 Z0 ;move Z to min endstops
G0 Z0.2
G92 E0 ;zero the extruded length
G1 X40 E25 F400 ; Extrude 25mm of filament in a 4cm line. Reduce speed (F) if you have a nozzle smaller than 0.4mm!
G92 E0 ;zero the extruded length again
G1 E-1 F500 ; Retract a little
G1 X80 F4000 ; Quickly wipe away from the filament line
M117 ; Printing…
G5
G92 E0
G92 E0
G1 F1500 E-6.5
;LAYER_COUNT:74
;LAYER:0
M107
G0 F3600 X116.411 Y118.394 Z0.3
G0 X112.489 Y127.115
;TYPE:SKIRT
G1 F1500 E0
G1 F1800 X112.577 Y126.119 E0.04988
G1 X112.659 Y125.402 E0.08589
G1 X112.804 Y124.681 E0.12258
G1 X112.981 Y124.068 E0.15441
G1 X113.296 Y123.065 E0.20686
G1 X113.578 Y122.378 E0.24391
G1 X113.86 Y121.829 E0.2747
G1 X114.376 Y120.884 E0.32842
G1 X114.785 Y120.266 E0.36539
G1 X115.289 Y119.632 E0.4058
G1 X115.883 Y118.924 E0.45191
G1 X116.411 Y118.394 E0.48923
G1 X117.014 Y117.885 E0.5286
G1 X117.749 Y117.297 E0.57556
G1 X118.384 Y116.874 E0.61362
G1 X119.147 Y116.456 E0.65703
G1 X119.884 Y116.076 E0.6984
G1 X120.569 Y115.794 E0.73536
G1 X121.408 Y115.529 E0.77925
G1 X122.202 Y115.3 E0.82048
G1 X122.935 Y115.155 E0.85776
G1 X123.844 Y115.055 E0.90338
G1 X124.619 Y114.989 E0.94219
G1 X125.349 Y114.988 E0.97861
G1 X126.106 Y115.051 E1.0165
G1 X127.053 Y115.153 E1.06402
G1 X127.797 Y115.299 E1.10185
G1 X128.571 Y115.523 E1.14205
G1 X129.435 Y115.795 E1.18724
G1 X130.134 Y116.083 E1.22496
G1 X130.831 Y116.445 E1.26414
G1 X131.64 Y116.89 E1.3102
G1 X132.258 Y117.301 E1.34723
G1 X132.866 Y117.787 E1.38607
G1 X133.605 Y118.411 E1.43432
G1 X134.142 Y118.951 E1.47231
G1 X134.697 Y119.615 E1.51549
G1 X135.2 Y120.243 E1.55563
G1 X135.623 Y120.879 E1.59374
G1 X136.093 Y121.741 E1.64272
G1 X136.416 Y122.366 E1.67782
G1 X136.702 Y123.058 E1.71518
G1 X137.003 Y124.013 E1.76513
G1 X137.2 Y124.7 E1.80079
G1 X137.34 Y125.402 E1.8365
G1 X137.428 Y126.171 E1.87512
G1 X137.51 Y127.107 E1.92199
G1 X137.511 Y127.87 E1.96006
G1 X137.432 Y128.784 E2.00583
G1 X137.343 Y129.581 E2.04584
G1 X137.199 Y130.305 E2.08267
G1 X136.981 Y131.06 E2.12187
G1 X136.706 Y131.933 E2.16754
G1 X136.41 Y132.646 E2.20605
G1 X136.002 Y133.428 E2.25006
G1 X135.595 Y134.164 E2.29202
G1 X135.187 Y134.774 E2.32863
G1 X134.764 Y135.304 E2.36246
G1 X134.086 Y136.108 E2.41493
G1 X133.549 Y136.642 E2.45271
G1 X132.885 Y137.197 E2.49589
G1 X132.254 Y137.701 E2.53618
G1 X131.654 Y138.104 E2.57224
G1 X131.112 Y138.406 E2.60319
G1 X130.146 Y138.91 E2.65755
G1 X129.446 Y139.2 E2.69535
G1 X128.604 Y139.467 E2.73942
G1 X127.798 Y139.7 E2.78128
G1 X127.089 Y139.842 E2.81735
G1 X126.358 Y139.925 E2.85406
G1 X125.389 Y140.011 E2.90259
G1 X124.631 Y140.012 E2.94041
G1 X123.812 Y139.942 E2.98142
G1 X122.914 Y139.842 E3.0265
G1 X122.164 Y139.692 E3.06465
G1 X121.348 Y139.453 E3.10708
G1 X120.557 Y139.203 E3.14846
G1 X119.871 Y138.919 E3.1855
G1 X119.221 Y138.582 E3.22203
G1 X118.365 Y138.113 E3.27073
G1 X117.736 Y137.694 E3.30843
G1 X117.105 Y137.189 E3.34876
G1 X116.404 Y136.598 E3.3945
G1 X115.864 Y136.056 E3.43267
G1 X115.304 Y135.386 E3.47623
G1 X114.809 Y134.768 E3.51574
G1 X114.394 Y134.148 E3.55296
G1 X113.962 Y133.365 E3.59757
G1 X113.576 Y132.616 E3.63961
G1 X113.295 Y131.932 E3.6765
G1 X112.998 Y130.989 E3.72583
G1 X112.8 Y130.3 E3.7616
G1 X112.658 Y129.59 E3.79772
G1 X112.575 Y128.858 E3.83447
G1 X112.489 Y127.887 E3.88311
G1 X112.489 Y127.115 E3.92162
G0 F3600 X112.887 Y127.15
G1 F1800 X112.964 Y126.27 E3.96569
G1 X113.057 Y125.448 E4.00696
G1 X113.188 Y124.792 E4.04034
G1 X113.365 Y124.179 E4.07217
G1 X113.677 Y123.186 E4.1241
G1 X113.934 Y122.56 E4.15786
G1 X114.265 Y121.918 E4.19389
G1 X114.726 Y121.076 E4.24179
G1 X115.098 Y120.515 E4.27537
G1 X115.523 Y119.978 E4.30954
G1 X116.19 Y119.181 E4.36139
G1 X116.669 Y118.699 E4.39529
G1 X117.178 Y118.268 E4.42856
G1 X117.999 Y117.61 E4.48105
G1 X118.576 Y117.225 E4.51566
G1 X119.339 Y116.807 E4.55906
G1 X120.067 Y116.432 E4.59992
G1 X120.689 Y116.176 E4.63348
G1 X121.63 Y115.88 E4.68269
G1 X122.313 Y115.684 E4.71814
G1 X122.979 Y115.553 E4.75201
G1 X123.989 Y115.443 E4.80269
G1 X124.653 Y115.387 E4.83594
G1 X125.316 Y115.386 E4.86901
G1 X125.962 Y115.439 E4.90135
G1 X127.01 Y115.551 E4.95393
G1 X127.687 Y115.684 E4.98836
G1 X128.451 Y115.905 E5.02803
G1 X129.315 Y116.177 E5.07323
G1 X129.95 Y116.438 E5.10748
G1 X130.638 Y116.795 E5.14615
G1 X131.447 Y117.24 E5.19221
G1 X132.009 Y117.614 E5.22589
G1 X132.517 Y118.018 E5.25827
G1 X133.347 Y118.717 E5.31241
G1 X133.835 Y119.208 E5.34695
G1 X134.446 Y119.94 E5.39452
G1 X134.887 Y120.492 E5.42977
G1 X135.272 Y121.07 E5.46441
G1 X135.694 Y121.842 E5.50831
G1 X136.061 Y122.55 E5.54809
G1 X136.32 Y123.178 E5.58198
G1 X136.618 Y124.123 E5.63142
G1 X136.815 Y124.81 E5.66708
G1 X136.943 Y125.449 E5.69959
G1 X137.03 Y126.206 E5.7376
G1 X137.112 Y127.142 E5.78448
G1 X137.112 Y127.835 E5.81905
G1 X137.023 Y128.853 E5.87004
G1 X136.946 Y129.536 E5.90433
G1 X136.815 Y130.194 E5.9378
G1 X136.599 Y130.94 E5.97655
G1 X136.324 Y131.813 E6.02221
G1 X136.055 Y132.461 E6.05721
G1 X135.598 Y133.334 E6.10637
G1 X135.245 Y133.97 E6.14266
G1 X134.874 Y134.524 E6.17593
G1 X134.379 Y135.142 E6.21543
G1 X133.781 Y135.849 E6.26163
G1 X133.292 Y136.335 E6.29603
G1 X132.556 Y136.949 E6.34384
G1 X132.005 Y137.388 E6.37899
G1 X131.459 Y137.754 E6.41179
G1 X130.815 Y138.111 E6.44852
G1 X129.961 Y138.555 E6.49654
G1 X129.325 Y138.819 E6.5309
G1 X128.377 Y139.118 E6.58049
G1 X127.687 Y139.316 E6.6163
G1 X127.043 Y139.445 E6.64907
G1 X126.428 Y139.516 E6.67996
G1 X125.354 Y139.612 E6.73375
G1 X124.665 Y139.614 E6.76813
G1 X123.964 Y139.555 E6.80322
G1 X122.958 Y139.444 E6.85372
G1 X122.277 Y139.308 E6.88836
G1 X121.461 Y139.069 E6.93079
G1 X120.678 Y138.821 E6.97176
G1 X120.054 Y138.563 E7.00545
G1 X119.413 Y138.231 E7.04146
G1 X118.557 Y137.762 E7.09016
G1 X117.985 Y137.381 E7.12445
G1 X117.363 Y136.883 E7.1642
G1 X116.662 Y136.292 E7.20994
G1 X116.171 Y135.799 E7.24466
G1 X115.555 Y135.061 E7.29262
G1 X115.122 Y134.519 E7.32723
G1 X114.745 Y133.954 E7.36111
G1 X114.257 Y133.066 E7.41167
G1 X113.932 Y132.433 E7.44717
G1 X113.676 Y131.812 E7.48068
G1 X113.413 Y130.98 E7.52421
G1 X113.185 Y130.19 E7.56523
G1 X113.055 Y129.544 E7.59811
G1 X112.984 Y128.929 E7.62899
G1 X112.888 Y127.852 E7.68294
G1 X112.887 Y127.15 E7.71796
G0 F3600 X113.286 Y127.185
G1 F1800 X113.372 Y126.21 E7.76679
G1 X113.454 Y125.493 E7.8028
G1 X113.572 Y124.903 E7.83282
G1 X113.749 Y124.29 E7.86465
G1 X114.059 Y123.306 E7.91612
G1 X114.29 Y122.743 E7.94648
G1 X114.616 Y122.11 E7.982
G1 X115.077 Y121.268 E8.02989
G1 X115.412 Y120.763 E8.06013
G1 X115.902 Y120.146 E8.09944
G1 X116.496 Y119.438 E8.14554
G1 X116.928 Y119.005 E8.17606
G1 X117.514 Y118.51 E8.21433
G1 X118.249 Y117.922 E8.26129
G1 X118.768 Y117.576 E8.29241
G1 X119.617 Y117.112 E8.34068
G1 X120.25 Y116.787 E8.37618
G1 X120.81 Y116.557 E8.40638
G1 X121.649 Y116.292 E8.45028
G1 X122.423 Y116.069 E8.49046
G1 X123.022 Y115.951 E8.52092
G1 X124.022 Y115.842 E8.57111
G1 X124.686 Y115.786 E8.60435
G1 X125.283 Y115.785 E8.63413
G1 X125.929 Y115.838 E8.66647
G1 X126.968 Y115.949 E8.7186
G1 X127.576 Y116.068 E8.74951
G1 X128.331 Y116.286 E8.78872
G1 X129.195 Y116.558 E8.83391
G1 X129.767 Y116.794 E8.86478
G1 X130.363 Y117.102 E8.89825
G1 X131.254 Y117.591 E8.94896
G1 X131.76 Y117.927 E8.97926
G1 X132.35 Y118.398 E9.01692
G1 X133.089 Y119.022 E9.06518
G1 X133.528 Y119.464 E9.09626
G1 X134.134 Y120.19 E9.14344
G1 X134.575 Y120.742 E9.17869
G1 X134.921 Y121.262 E9.20985
G1 X135.343 Y122.034 E9.25374
G1 X135.705 Y122.733 E9.29301
G1 X135.939 Y123.299 E9.32357
G1 X136.234 Y124.234 E9.37248
G1 X136.431 Y124.921 E9.40814
G1 X136.546 Y125.495 E9.43735
G1 X136.621 Y126.137 E9.46959
G1 X136.713 Y127.177 E9.52168
G1 X136.714 Y127.801 E9.55281
G1 X136.635 Y128.715 E9.59858
G1 X136.548 Y129.491 E9.63754
G1 X136.431 Y130.083 E9.66765
G1 X136.218 Y130.82 E9.70592
G1 X135.943 Y131.693 E9.75158
G1 X135.701 Y132.276 E9.78308
G1 X135.249 Y133.14 E9.83172
G1 X134.896 Y133.776 E9.86801
G1 X134.562 Y134.275 E9.89797
G1 X134.074 Y134.884 E9.93691
G1 X133.476 Y135.591 E9.9831
G1 X133.036 Y136.028 E10.01404
G1 X132.306 Y136.637 E10.06147
G1 X131.755 Y137.076 E10.09662
G1 X131.264 Y137.405 E10.12611
G1 X130.631 Y137.756 E10.16222
G1 X129.777 Y138.2 E10.21024
G1 X129.204 Y138.438 E10.24119
G1 X128.362 Y138.705 E10.28526
G1 X127.577 Y138.931 E10.32602
G1 X126.997 Y139.047 E10.35553
G1 X126.287 Y139.128 E10.39118
G1 X125.318 Y139.214 E10.43971
G1 X124.698 Y139.215 E10.47064
G1 X123.901 Y139.147 E10.51055
G1 X123.003 Y139.047 E10.55563
G1 X122.389 Y138.924 E10.58687
G1 X121.573 Y138.685 E10.62929
G1 X120.8 Y138.44 E10.66975
G1 X120.238 Y138.208 E10.70008
G1 X119.605 Y137.88 E10.73565
G1 X118.749 Y137.411 E10.78434
G1 X118.235 Y137.069 E10.81514
G1 X117.697 Y136.64 E10.84947
G1 X116.92 Y135.986 E10.90014
G1 X116.478 Y135.543 E10.93136
G1 X115.867 Y134.811 E10.97893
G1 X115.434 Y134.269 E11.01354
G1 X115.095 Y133.761 E11.04401
G1 X114.612 Y132.883 E11.09401
G1 X114.287 Y132.25 E11.12951
G1 X114.057 Y131.691 E11.15966
G1 X113.794 Y130.859 E11.2032
G1 X113.569 Y130.079 E11.2437
G1 X113.453 Y129.498 E11.27326
G1 X113.372 Y128.788 E11.30891
G1 X113.286 Y127.817 E11.35754
G1 X113.286 Y127.185 E11.38907
G0 F3600 X113.684 Y127.22
G1 F1800 X113.761 Y126.34 E11.43314
G1 X113.852 Y125.538 E11.47341
G1 X113.957 Y125.014 E11.50007
G1 X114.156 Y124.327 E11.53576
G1 X114.44 Y123.426 E11.58289
G1 X114.646 Y122.926 E11.60987
G1 X114.967 Y122.302 E11.64488
G1 X115.428 Y121.46 E11.69277
G1 X115.726 Y121.011 E11.71965
G1 X116.209 Y120.403 E11.75839
G1 X116.803 Y119.695 E11.8045
G1 X117.186 Y119.31 E11.83159
G1 X117.764 Y118.822 E11.86933
G1 X118.499 Y118.234 E11.91629
G1 X118.961 Y117.927 E11.94397
G1 X119.799 Y117.468 E11.99164
G1 X120.432 Y117.143 E12.02714
G1 X120.93 Y116.939 E12.05399
G1 X121.85 Y116.649 E12.10211
G1 X122.533 Y116.453 E12.13756
G1 X123.066 Y116.348 E12.16466
G1 X124.056 Y116.24 E12.21435
G1 X124.72 Y116.184 E12.24759
G1 X125.251 Y116.184 E12.27408
G1 X125.978 Y116.244 E12.31048
G1 X126.925 Y116.346 E12.358
G1 X127.466 Y116.453 E12.38551
G1 X128.211 Y116.668 E12.4242
G1 X129.075 Y116.94 E12.46939
G1 X129.583 Y117.149 E12.49679
G1 X130.179 Y117.457 E12.53026
G1 X131.061 Y117.941 E12.58046
G1 X131.511 Y118.24 E12.60741
G1 X132.019 Y118.644 E12.63979
G1 X132.83 Y119.328 E12.69272
G1 X133.221 Y119.721 E12.72038
G1 X133.821 Y120.44 E12.7671
G1 X134.262 Y120.992 E12.80235
G1 X134.57 Y121.454 E12.83005
G1 X135.027 Y122.292 E12.87767
G1 X135.35 Y122.917 E12.91277
G1 X135.558 Y123.42 E12.93993
G1 X135.824 Y124.26 E12.98388
G1 X136.046 Y125.031 E13.02391
G1 X136.148 Y125.542 E13.04991
G1 X136.233 Y126.276 E13.08677
G1 X136.315 Y127.212 E13.13365
G1 X136.315 Y127.767 E13.16134
G1 X136.228 Y128.763 E13.21122
G1 X136.151 Y129.446 E13.24551
G1 X136.046 Y129.973 E13.27232
G1 X135.836 Y130.699 E13.31002
G1 X135.561 Y131.572 E13.35569
G1 X135.346 Y132.091 E13.38371
G1 X134.899 Y132.946 E13.43185
G1 X134.546 Y133.582 E13.46814
G1 X134.249 Y134.025 E13.49475
G1 X133.768 Y134.626 E13.53315
G1 X133.17 Y135.333 E13.57935
G1 X132.779 Y135.721 E13.60683
G1 X132.057 Y136.324 E13.65376
G1 X131.506 Y136.763 E13.68891
G1 X131.07 Y137.055 E13.71509
G1 X130.446 Y137.401 E13.75069
G1 X129.592 Y137.845 E13.79871
G1 X129.083 Y138.056 E13.8262
G1 X128.157 Y138.349 E13.87465
G1 X127.467 Y138.547 E13.91047
G1 X126.951 Y138.65 E13.93672
G1 X126.336 Y138.721 E13.9676
G1 X125.283 Y138.815 E14.02035
G1 X124.732 Y138.817 E14.04784
G1 X124.031 Y138.758 E14.08293
G1 X123.047 Y138.649 E14.13233
G1 X122.502 Y138.54 E14.16005
G1 X121.617 Y138.28 E14.20607
G1 X120.921 Y138.059 E14.2425
G1 X120.421 Y137.852 E14.2695
G1 X119.797 Y137.529 E14.30456
G1 X118.941 Y137.06 E14.35325
G1 X118.484 Y136.756 E14.38064
G1 X117.878 Y136.272 E14.41933
G1 X117.177 Y135.681 E14.46507
G1 X116.785 Y135.286 E14.49284
G1 X116.18 Y134.561 E14.53995
G1 X115.747 Y134.019 E14.57456
G1 X115.445 Y133.568 E14.60164
G1 X114.968 Y132.701 E14.65101
G1 X114.643 Y132.068 E14.68651
G1 X114.439 Y131.57 E14.71335
G1 X114.151 Y130.658 E14.76107
G1 X113.953 Y129.969 E14.79684
G1 X113.85 Y129.452 E14.82314
G1 X113.77 Y128.752 E14.85829
G1 X113.684 Y127.781 E14.90692
G1 X113.684 Y127.22 E14.93491
G1 F1500 E8.43491
G0 F3600 X119.346 Y127.763
;TYPE:SUPPORT
G1 F1500 E14.93491
G1 F1800 X119.448 Y128.544 E14.9742
G1 X119.612 Y129.229 E15.00934
G1 X119.882 Y129.894 E15.04515
G1 X120.24 Y130.562 E15.08296
G1 X120.681 Y131.145 E15.11943
G1 X121.089 Y131.578 E15.14911
G1 X121.634 Y132.053 E15.18518
G1 X122.287 Y132.456 E15.22346
G1 X122.903 Y132.758 E15.25769
G1 X123.622 Y132.976 E15.29517
G1 X124.343 Y133.12 E15.33186
G1 X125.063 Y133.145 E15.3678
G1 X125.84 Y133.093 E15.40665
G1 X126.511 Y132.943 E15.44095
G1 X127.221 Y132.702 E15.47836
G1 X127.873 Y132.364 E15.515
G1 X128.361 Y132.039 E15.54425
G1 X128.826 Y131.66 E15.57418
G1 X129.218 Y131.262 E15.60205
G1 X129.677 Y130.682 E15.63895
G1 X130.119 Y129.912 E15.68324
G1 X130.383 Y129.216 E15.72038
G1 X130.529 Y128.658 E15.74916
G1 X130.614 Y128.105 E15.77707
G1 X130.632 Y127.754 E15.79461
G1 X130.654 Y127.323 E15.81614
G1 X130.564 Y126.468 E15.85903
G1 X130.386 Y125.789 E15.89405
G1 X130.117 Y125.076 E15.93207
G1 X129.675 Y124.309 E15.97623
G1 X129.225 Y123.751 E16.012
G1 X128.812 Y123.331 E16.04138
G1 X128.352 Y122.951 E16.07115
G1 X127.853 Y122.624 E16.10092
G1 X127.216 Y122.284 E16.13694
G1 X126.397 Y122.014 E16.17996
G1 X125.649 Y121.887 E16.21781
G1 X124.892 Y121.84 E16.25565
G1 X124.227 Y121.902 E16.28897
G1 X123.602 Y122.027 E16.32077
G1 X122.905 Y122.24 E16.35713
G1 X122.262 Y122.557 E16.3929
G1 X121.63 Y122.949 E16.43
G1 X121.087 Y123.426 E16.46606
G1 X120.684 Y123.854 E16.49539
G1 X120.238 Y124.441 E16.53217
G1 X119.879 Y125.112 E16.57014
G1 X119.614 Y125.772 E16.60562
G1 X119.437 Y126.516 E16.64377
G1 X119.36 Y127.082 E16.67227
G1 X119.346 Y127.763 E16.70625
G0 F3600 X119.539 Y128.016
G1 F1800 X130.457 Y128.016 E17.25096
G0 F3600 X130.049 Y125.349
G1 F1800 X119.956 Y125.349 E17.7545
G1 X120.015 Y125.204
G1 X120.015 Y129.796 E17.98359
G0 F3600 X120.531 Y130.683
G1 F1800 X129.47 Y130.683 E18.42956
G0 F3600 X128.016 Y132.077
G1 F1800 X128.016 Y122.922 E18.88631
G0 F3600 X127.624 Y122.682
G1 F1800 X122.368 Y122.682 E19.14853
G0 F3600 X122.682 Y122.528
G1 F1800 X122.682 Y132.471 E19.64459
G0 F3600 X125.349 Y132.966
G1 F1800 X125.349 Y122.029 E20.19024
G1 F1500 E13.69024
;MESH:Pot_Knob.stl
G0 F3600 X118.231 Y127.375
G0 X117.214 Y127.449
;TYPE:WALL-OUTER
G1 F1500 E20.19024
G1 F1061.9 X117.275 Y128.308 E20.26306
G1 F1048 X117.368 Y129.016 E20.32425
G1 F1043.5 X117.587 Y129.806 E20.3948
G1 F1040.5 X117.813 Y130.475 E20.45575
G1 F1048 X118.117 Y131.102 E20.51545
G1 F1065.1 X118.556 Y131.87 E20.59004
G1 F1054.2 X119.152 Y132.609 E20.67092
G1 F1051.1 X119.555 Y133.065 E20.72291
G1 F1034.5 X120.057 Y133.481 E20.77951
G1 F1027.1 X120.56 Y133.898 E20.83663
G1 F1045 X121.122 Y134.225 E20.89251
G1 F1054.2 X121.929 Y134.652 E20.97029
G1 F1055.7 X122.453 Y134.841 E21.01767
G1 F1066.7 X122.985 Y134.994 E21.06427
G1 F1057.3 X123.517 Y135.147 E21.11129
G1 F1046.5 X124.196 Y135.217 E21.16987
G1 F1036 X124.875 Y135.288 E21.22905
G1 F1043.5 X125.41 Y135.25 E21.2752
G1 F1068.2 X125.945 Y135.211 E21.3203
G1 F1060.4 X126.581 Y135.12 E21.37471
G1 F1055.7 X127.384 Y134.888 E21.44581
G1 F1057.3 X128.062 Y134.66 E21.50656
G1 F1055.7 X128.85 Y134.243 E21.5824
G1 F1051.1 X129.44 Y133.898 E21.64079
G1 F1039 X129.966 Y133.462 E21.69985
G1 F1049.6 X130.492 Y133.025 E21.75836
G1 F1060.4 X131.072 Y132.337 E21.83457
G1 F1039 X131.469 Y131.821 E21.89084
G1 F1042 X131.826 Y131.193 E21.9531
M104 S205
G1 F1061.9 X132.21 Y130.447 E22.02405
G1 F1048 X132.412 Y129.787 E22.08319
